public/darkgreenwave.svg

<svg width="1728" height="230" viewBox="0 0 1728 230" fill="none" xmlns="http://www.w3.org/2000/svg"><path fill-rule="evenodd" clip-rule="evenodd" d="m0 .79 41.76 25.966c40.32 25.966 122.4 77.9 204.48 86.555 83.52 8.656 165.6-25.967 247.68-25.967 82.08 0 164.16 34.623 246.24 51.934 82.08 17.311 165.6 17.311 247.68 12.983 82.08-4.328 164.16-12.983 246.24 0 82.08 12.983 164.16 47.606 247.68 56.261 82.08 8.656 164.16-8.655 204.48-17.311l41.76-8.655v51.933H0V.789Z" fill="#00725B"/></svg>

<svg width="1728" height="230" viewBox="0 0 1728 230" fill="none" xmlns="http://www.w3.org/2000/svg">
<path fill-rule="evenodd" clip-rule="evenodd" d="M0 0.789062L41.76 26.7557C82.08 52.7223 164.16 104.656 246.24 113.311C329.76 121.967 411.84 87.3445 493.92 87.3445C576 87.3445 658.08 121.967 740.16 139.278C822.24 156.589 905.76 156.589 987.84 152.261C1069.92 147.933 1152 139.278 1234.08 152.261C1316.16 165.244 1398.24 199.867 1481.76 208.522C1563.84 217.178 1645.92 199.867 1686.24 191.211L1728 182.556V234.489H1686.24C1645.92 234.489 1563.84 234.489 1481.76 234.489C1398.24 234.489 1316.16 234.489 1234.08 234.489C1152 234.489 1069.92 234.489 987.84 234.489C905.76 234.489 822.24 234.489 740.16 234.489C658.08 234.489 576 234.489 493.92 234.489C411.84 234.489 329.76 234.489 246.24 234.489C164.16 234.489 82.08 234.489 41.76 234.489H0V0.789062Z" fill="#00725B"/>
</svg>
